static/logos/amplitude-glyph-color.svg

<svg width="50" height="53" viewBox="0 0 50 53" fill="none" xmlns="http://www.w3.org/2000/svg">
<path d="M21.9068 11.6452C21.8578 11.5629 21.7897 11.4935 21.7083 11.4431C21.6269 11.3928 21.5346 11.3627 21.4391 11.3556C21.3097 11.3617 21.1849 11.4052 21.0797 11.4806C19.7568 12.5608 17.9453 17.1441 16.4609 23.1827L17.7745 23.1993C20.3703 23.2285 23.0495 23.2608 25.6995 23.3035C24.9995 20.5368 24.3453 18.166 23.7349 16.2535C23.2992 14.654 22.6859 13.1083 21.9068 11.6452Z" fill="#1C56EE"/>
<path d="M24.8552 0C11.1281 0 0 11.5792 0 25.8625C0 40.1458 11.1281 51.7229 24.8552 51.7229C38.5823 51.7229 49.7104 40.1448 49.7104 25.8625C49.7104 11.5802 38.5813 0 24.8552 0ZM42.7229 26.3302L42.7167 26.3365C42.6906 26.3573 42.6635 26.3802 42.6344 26.4L42.6073 26.4208L42.549 26.4562C42.5311 26.4679 42.5127 26.4787 42.4938 26.4885C42.3068 26.5917 42.0968 26.6457 41.8833 26.6458H30.1042C30.2 27.051 30.3031 27.5125 30.4167 28.0146C31.0615 30.9156 32.775 38.6219 34.5958 38.6219H34.6896C36.1135 38.6219 36.8385 36.4823 38.4292 31.7948L38.449 31.7365C38.7052 30.9833 38.9927 30.1344 39.3063 29.2365L39.3854 29.0062C39.4304 28.8819 39.5176 28.7773 39.6319 28.7107C39.746 28.6441 39.88 28.6196 40.0104 28.6417C40.1423 28.669 40.2608 28.7407 40.3459 28.8451C40.4312 28.9495 40.4778 29.0799 40.4781 29.2146C40.4782 29.272 40.4701 29.3292 40.4542 29.3844L40.3875 29.6146C40.2219 30.1729 40.0458 30.9333 39.8417 31.8125C38.8938 35.9021 37.4604 42.0792 33.7854 42.0792H33.7583C31.3844 42.0594 29.9667 38.1094 29.3563 36.4219C28.2208 33.2687 27.3594 29.9062 26.5344 26.6521H15.701L13.451 34.1396L13.4167 34.1125C13.2895 34.327 13.0946 34.4931 12.8626 34.5846C12.6306 34.676 12.3748 34.6877 12.1354 34.6177C11.8941 34.5409 11.6836 34.3891 11.5347 34.1843C11.3856 33.9795 11.306 33.7324 11.3073 33.4792V33.4385L11.4438 32.5917C11.7563 30.6677 12.126 28.6677 12.5521 26.6479H7.98438L7.96771 26.6302C7.55958 26.5519 7.19088 26.3354 6.92353 26.0173C6.6562 25.6991 6.50652 25.2985 6.49968 24.8831C6.49283 24.4676 6.62924 24.0624 6.88595 23.7355C7.14267 23.4087 7.50405 23.1803 7.90938 23.0885C8.08677 23.0688 8.26531 23.0611 8.44375 23.0656H8.66667C10.1177 23.0917 11.6615 23.1146 13.3438 23.1365C15.7292 13.0385 18.5 7.90625 21.5708 7.89583C24.8635 7.89583 27.3063 15.699 29.2604 23.3312L29.2688 23.3625C33.2875 23.4469 37.5698 23.5708 41.7323 23.8833L41.9073 23.9C41.974 23.9018 42.0403 23.9077 42.1063 23.9177H42.1625C42.4125 23.973 42.6415 24.0985 42.8225 24.2796C43.0035 24.4606 43.1291 24.6896 43.1844 24.9396C43.2431 25.1914 43.2312 25.4546 43.1498 25.7C43.0683 25.9454 42.9206 26.1635 42.7229 26.3302Z" fill="#1C56EE"/>
</svg>

<svg xmlns="http://www.w3.org/2000/svg" width="60.377" height="64" fill="none" viewBox="0 0 50 53"><path fill="#1C56EE" d="M21.907 11.645a.597.597 0 0 0-.468-.29.671.671 0 0 0-.36.126c-1.322 1.08-3.134 5.663-4.618 11.702l1.314.016c2.595.03 5.274.062 7.925.104-.7-2.766-1.355-5.137-1.965-7.05a22.242 22.242 0 0 0-1.828-4.608Z"/><path fill="#1C56EE" d="M24.855 0C11.128 0 0 11.58 0 25.863s11.128 25.86 24.855 25.86S49.71 40.145 49.71 25.863C49.71 11.58 38.581 0 24.855 0Zm17.868 26.33-.006.007c-.026.02-.053.043-.083.063l-.027.02-.058.036a1.265 1.265 0 0 1-.666.19H30.104c.096.405.2.866.313 1.369.644 2.9 2.358 10.607 4.179 10.607h.094c1.424 0 2.149-2.14 3.74-6.827l.019-.059c.256-.753.544-1.602.857-2.5l.08-.23a.564.564 0 0 1 .624-.364.586.586 0 0 1 .444.742l-.066.23c-.166.559-.342 1.32-.546 2.198-.948 4.09-2.382 10.267-6.057 10.267h-.027c-2.374-.02-3.791-3.97-4.402-5.657-1.135-3.153-1.997-6.516-2.822-9.77H15.701l-2.25 7.488-.034-.028a1.123 1.123 0 0 1-1.282.506 1.188 1.188 0 0 1-.828-1.139v-.04l.137-.847c.312-1.924.682-3.924 1.108-5.944H7.984l-.016-.018a1.81 1.81 0 0 1-.059-3.541c.178-.02.356-.028.535-.023h.223c1.45.026 2.995.049 4.677.07C15.729 13.04 18.5 7.907 21.57 7.897c3.292 0 5.735 7.803 7.69 15.435l.008.032c4.019.084 8.3.208 12.463.52l.175.017c.067.002.133.008.2.018h.056a1.343 1.343 0 0 1 1.021 1.022 1.403 1.403 0 0 1-.461 1.39Z"/></svg>
